polaris-icons/icons/ProductListIcon.svg

<svg viewBox="0 0 20 20" xmlns="http://www.w3.org/2000/svg">
<path d="M8.02273 4.14885C8.72962 3.41477 9.70483 3 10.7239 3H12.698C14.4929 3 15.948 4.45507 15.948 6.25V8.62148C15.948 9.38665 15.6366 10.1189 15.0854 10.6496C14.7871 10.9369 14.3123 10.928 14.025 10.6296C13.7376 10.3312 13.7466 9.85645 14.045 9.56913C14.3025 9.32114 14.448 8.97901 14.448 8.62148V6.25C14.448 5.2835 13.6645 4.5 12.698 4.5H10.7239C10.1125 4.5 9.52734 4.74886 9.10321 5.18931L4.8496 9.60652C4.37712 10.0972 4.38446 10.8758 4.86612 11.3575L8.97833 15.4697C9.27123 15.7626 9.27123 16.2374 8.97833 16.5303C8.68544 16.8232 8.21057 16.8232 7.91767 16.5303L3.80546 12.4181C2.74582 11.3585 2.72965 9.6455 3.76912 8.56605L8.02273 4.14885Z"/>
<path d="M13.448 6.5C13.448 7.05228 13.0003 7.5 12.448 7.5C11.8957 7.5 11.448 7.05228 11.448 6.5C11.448 5.94772 11.8957 5.5 12.448 5.5C13.0003 5.5 13.448 5.94772 13.448 6.5Z"/>
<path d="M10.4482 12.7803C10.4482 12.3661 10.784 12.0303 11.1982 12.0303H16.6982C17.1125 12.0303 17.4482 12.3661 17.4482 12.7803C17.4482 13.1945 17.1125 13.5303 16.6982 13.5303H13.9482H11.1982C10.784 13.5303 10.4482 13.1945 10.4482 12.7803Z"/>
<path d="M10.4482 15.7803C10.4482 15.3661 10.784 15.0303 11.1982 15.0303H16.6982C17.1125 15.0303 17.4482 15.3661 17.4482 15.7803C17.4482 16.1945 17.1125 16.5303 16.6982 16.5303H11.1982C10.784 16.5303 10.4482 16.1945 10.4482 15.7803Z"/>
</svg>

<svg xmlns="http://www.w3.org/2000/svg" viewBox="0 0 20 20"><path d="M8.023 4.149c.707-.734 1.682-1.149 2.7-1.149h1.975c1.795 0 3.25 1.455 3.25 3.25v2.371c0 .766-.311 1.498-.863 2.029-.298.287-.773.278-1.06-.02-.287-.299-.278-.774.02-1.06.258-.249.403-.591.403-.949v-2.371c0-.966-.784-1.75-1.75-1.75h-1.974c-.611 0-1.197.249-1.62.69l-4.254 4.417c-.473.49-.466 1.269.016 1.75l4.112 4.113c.293.293.293.767 0 1.06-.293.293-.767.293-1.06 0l-4.113-4.112c-1.06-1.06-1.075-2.772-.036-3.852l4.254-4.417Z"/><path d="M13.448 6.5c0 .552-.448 1-1 1s-1-.448-1-1 .448-1 1-1 1 .448 1 1Z"/><path d="M10.448 12.78c0-.414.336-.75.75-.75h5.5c.415 0 .75.336.75.75 0 .415-.335.75-.75.75h-5.5c-.414 0-.75-.335-.75-.75Z"/><path d="M10.448 15.78c0-.414.336-.75.75-.75h5.5c.415 0 .75.336.75.75 0 .415-.335.75-.75.75h-5.5c-.414 0-.75-.335-.75-.75Z"/></svg>
